src/assets/Icon.svg

<svg fill="none" height="14" viewBox="0 0 14 14" width="14" xmlns="http://www.w3.org/2000/svg"><path clip-rule="evenodd" d="m4.00298 4.00529c.0122-1.22535.07436-1.93631.39113-2.49167.26619-.46668.65283-.853321 1.11951-1.119515.69094-.394105 1.62276-.394105 3.48638-.394105 1.8636 0 2.7954 0 3.4864.394105.4667.266194.8533.652835 1.1195 1.119515.3941.69094.3941 1.62276.3941 3.48638s0 2.79544-.3941 3.48638c-.2662.46668-.6528.85332-1.1195 1.11951-.5554.31677-1.2663.37893-2.49167.39113l.00224.00298c-.01233 1.2221-.07476 1.9318-.39108 2.4864-.26619.4667-.65283.8533-1.11951 1.1195-.69094.3941-1.62276.3941-3.48638.3941s-2.79544 0-3.48638-.3941c-.46668-.2662-.853321-.6528-1.119515-1.1195-.394105-.6909-.394105-1.6228-.394105-3.48638 0-1.86362 0-2.79543.394105-3.48638.266194-.46668.652835-.85332 1.119515-1.11951.55456-.31631 1.26427-.37875 2.48638-.39108zm4.99702 4.49471c-.95902 0-1.57952-.00139-2.04967-.04333-.4508-.04021-.61373-.10821-.69352-.15372-.23334-.1331-.42666-.32642-.55976-.55976-.04551-.07979-.11351-.24272-.15372-.69352-.04194-.47015-.04333-1.09065-.04333-2.04967s.00139-1.57952.04333-2.04967c.04021-.4508.10821-.61373.15372-.69352.1331-.23334.32642-.42666.55976-.55976.07979-.04551.24272-.11351.69352-.15372.47015-.04194 1.09065-.04333 2.04967-.04333s1.5795.00139 2.0497.04333c.4508.04021.6137.10821.6935.15372.2333.1331.4267.32642.5597.55976.0456.07979.1136.24272.1538.69352.0419.47015.0433 1.09065.0433 2.04967s-.0014 1.57952-.0433 2.04967c-.0402.4508-.1082.61373-.1538.69352-.133.23334-.3264.42666-.5597.55976-.0798.04551-.2427.11351-.6935.15372-.4702.04194-1.09068.04333-2.0497.04333zm-5-2.99681c-.43117.00443-.7675.01499-1.04967.04016-.4508.04021-.61373.10821-.69352.15372-.23334.1331-.42666.32642-.55976.55976-.04551.07979-.11351.24272-.15372.69352-.04194.47015-.04333 1.09065-.04333 2.04967s.00139 1.57948.04333 2.04968c.04021.4508.10821.6137.15372.6935.1331.2334.32642.4267.55976.5598.07979.0455.24272.1135.69352.1537.47015.0419 1.09065.0433 2.04967.0433s1.57952-.0014 2.04967-.0433c.4508-.0402.61373-.1082.69352-.1537.23334-.1331.42666-.3264.55976-.5598.04551-.0798.11351-.2427.15372-.6935.02517-.2822.03573-.6185.04016-1.0497-1.53429-.00317-2.35742-.03716-2.98321-.39411-.46668-.26619-.85332-.65283-1.11951-1.11951-.35695-.62579-.39094-1.44891-.39411-2.98319z" fill="#089c96" fill-rule="evenodd"/></svg>

<svg width="14" height="14" viewBox="0 0 14 14" fill="none" xmlns="http://www.w3.org/2000/svg">
<path fill-rule="evenodd" clip-rule="evenodd" d="M4.00298 4.00529C4.01518 2.77994 4.07734 2.06898 4.39411 1.51362C4.6603 1.04694 5.04694 0.660299 5.51362 0.394105C6.20456 0 7.13638 0 9 0C10.8636 0 11.7954 0 12.4864 0.394105C12.9531 0.660299 13.3397 1.04694 13.6059 1.51362C14 2.20456 14 3.13638 14 5C14 6.86362 14 7.79544 13.6059 8.48638C13.3397 8.95306 12.9531 9.3397 12.4864 9.60589C11.931 9.92266 11.2201 9.98482 9.99473 9.99702L9.99697 10C9.98464 11.2221 9.92221 11.9318 9.60589 12.4864C9.3397 12.9531 8.95306 13.3397 8.48638 13.6059C7.79544 14 6.86362 14 5 14C3.13638 14 2.20456 14 1.51362 13.6059C1.04694 13.3397 0.660299 12.9531 0.394105 12.4864C0 11.7955 0 10.8636 0 9.00002C0 7.1364 0 6.20459 0.394105 5.51364C0.660299 5.04696 1.04694 4.66032 1.51362 4.39413C2.06818 4.07782 2.77789 4.01538 4 4.00305L4.00298 4.00529ZM9 8.5C8.04098 8.5 7.42048 8.49861 6.95033 8.45667C6.49953 8.41646 6.3366 8.34846 6.25681 8.30295C6.02347 8.16985 5.83015 7.97653 5.69705 7.74319C5.65154 7.6634 5.58354 7.50047 5.54333 7.04967C5.50139 6.57952 5.5 5.95902 5.5 5C5.5 4.04098 5.50139 3.42048 5.54333 2.95033C5.58354 2.49953 5.65154 2.3366 5.69705 2.25681C5.83015 2.02347 6.02347 1.83015 6.25681 1.69705C6.3366 1.65154 6.49953 1.58354 6.95033 1.54333C7.42048 1.50139 8.04098 1.5 9 1.5C9.95902 1.5 10.5795 1.50139 11.0497 1.54333C11.5005 1.58354 11.6634 1.65154 11.7432 1.69705C11.9765 1.83015 12.1699 2.02347 12.3029 2.25681C12.3485 2.3366 12.4165 2.49953 12.4567 2.95033C12.4986 3.42048 12.5 4.04098 12.5 5C12.5 5.95902 12.4986 6.57952 12.4567 7.04967C12.4165 7.50047 12.3485 7.6634 12.3029 7.74319C12.1699 7.97653 11.9765 8.16985 11.7432 8.30295C11.6634 8.34846 11.5005 8.41646 11.0497 8.45667C10.5795 8.49861 9.95902 8.5 9 8.5ZM4 5.50319C3.56883 5.50762 3.2325 5.51818 2.95033 5.54335C2.49953 5.58356 2.3366 5.65156 2.25681 5.69707C2.02347 5.83017 1.83015 6.02349 1.69705 6.25683C1.65154 6.33662 1.58354 6.49955 1.54333 6.95035C1.50139 7.4205 1.5 8.041 1.5 9.00002C1.5 9.95904 1.50139 10.5795 1.54333 11.0497C1.58354 11.5005 1.65154 11.6634 1.69705 11.7432C1.83015 11.9766 2.02347 12.1699 2.25681 12.303C2.3366 12.3485 2.49953 12.4165 2.95033 12.4567C3.42048 12.4986 4.04098 12.5 5 12.5C5.95902 12.5 6.57952 12.4986 7.04967 12.4567C7.50047 12.4165 7.6634 12.3485 7.74319 12.303C7.97653 12.1699 8.16985 11.9766 8.30295 11.7432C8.34846 11.6634 8.41646 11.5005 8.45667 11.0497C8.48184 10.7675 8.4924 10.4312 8.49683 10C6.96254 9.99683 6.13941 9.96284 5.51362 9.60589C5.04694 9.3397 4.6603 8.95306 4.39411 8.48638C4.03716 7.86059 4.00317 7.03747 4 5.50319Z" fill="#089C96"/>
</svg>
